X: 350
T: Yangliu qing
L: 1/8
M: 2/4
K: E
e2d c [I:setbarnb 1]| 
e2d c | 
e> f d c | 
b g b g | 
B> c e c | 
eB2G/ c/ | 
B4 | 
z g f g | 
e g f e | 
e G B e | 
c B G F | 
E2z2 | 
B> c B c | 
G FE2 | 
B c B B/ c/ | 
G FE2 | 
B> c B c | 
G FE2 | 
B c B B/ c/ | 
G FE2 | 
z g f g | 
e> g f e | 
e G B3/ e/ | 
c B G F | 
E2z2 |]

@@@ Tune index: 9224
